X:1
T:Never Alone
T:Never Alone
T:Arranged by Fred Jackey
T:Ludie Day Pickett, 1897
T:Public Domain Courtesy of the Cyber Hymnal™
T:Public Domain Courtesy of the Cyber Hymnal™
C:Arranged by Fred Jackey
Z:Public Domain
Z:Courtesy of the Cyber Hymnal™
%%score ( 1 2 ) ( 3 4 )
L:1/8
M:6/8
K:C
V:1 treble 
V:2 treble 
V:3 bass 
V:4 bass 
V:1
 [EG] | [EG]2 [EG] ([CE][EG])[Ec] | [Ge]3 [Ge]2 [^Gd] | [Ac]2 [Ac] (dc)[FA] | [EG]3- [EG]2 [EG] | %5
w: 1.~I’ve|seen the light- * ning|flash- ing, I’ve|heard the thun- * der|roll. * I’ve|
w: 2.~The|world’s fierce winds * are|blow- ing, temp-|ta- tion sharp * and|keen. * I|
w: 3.~When|in af- flict- * ion’s|val- ley I|tread the road * of|care, * My|
w: 4.~He|died on Calva- * ry’s|mount- ain, for|me they piercèd * His|side. * For|
 [FG]2 [FG] ([B,D][CE])[DF] | [FB]3 [FB]2 [FA] | [FG]2 [FA] [FG][FG][DF] | [CE]3- [CE]2 [EG] | %9
w: felt sin’s break- * ers|dash- ing, which|al- most con- quered my|soul. * I’ve|
w: have a peace * in|know- ing my|Sav- ior sta- nds be-|tween— * He|
w: Sav- ior helps * me|car- ry the|cross so hea- vy to|bear; * Though|
w: me He opened * that|foun- tain, the|crim- son, cle- ans- ing|tide. * For|
 [EG]2 [EG] [CE][EG][Ec] | [Ge]3 [Ge]3 | [Ac][Ac][Ac] [Fd][Fc][FA] | [EG]3- [EG]2 [EG] | %13
w: heard the voice of my|Sav- ior,|bid- ding me still to fight|on. * He|
w: stands to shield me from|dan- ger|wh- en my friends are all|gone. * He|
w: all a- round me is|dark- ness,|ea- rth- ly jo- ys all|flown; * My|
w: me He wait- eth in|glo- ry,|seat- ed up- o- n His|throne. * He|
 [FG]2 [FG] [B,D][CE][DF] | [FB]3 [FB]3 | [FG][FG][FG] [FB][FA][FB] | [Ec]6 ||"^Refrain" G3 EGc | %18
w: prom- ised ne- ver to|leave me,|ne- ver to leave me a-|lone!||
w: pro- mised ne- ver to|leave me,|ne- ver to leave me a-|lone!|No, ne- ver a-|
w: Sav- ior whis- pers His|pro- mise,|ne- ver to leave me a-|lone!||
w: pro- mised ne- ver to|leave me,|ne- ver to leave me a-|lone!||
 e3- e3 | c3 dcA | G3- G2 [EG] | [FG]2 [FG] [B,D][CE][DF] | [FB]3 [FB]2 [FA] | G2 [FA] [EG]2 [DF] | %24
w: ||||||
w: lone, *|no ne- ver a-|lone, * He|pro- mised ne- ver to|leave me, He’ll|claim me for His|
w: ||||||
w: ||||||
 [CE]6 | G3 EGc | e3- e3 | c3 dcA | G3- G2 [EG] | [FG]2 [FG] [B,D][CE][DF] | [FB] [FB]4 | %31
w: |||||||
w: own;|No, ne- ver a-|lone, *|no ne- ver a-|lone. * He|pro- mised ne- ver to|leave me,|
w: |||||||
w: |||||||
 [FG][FG][FG] [FB][FA][FB] | [Ec]3- [Ec]2 |] %33
w: ||
w: Ne- ver to leave me a-|lone. *|
w: ||
w: ||
V:2
 x | x6 | x6 | x3 F2 x | x6 | x6 | x6 | x6 | x6 | x6 | x6 | x6 | x6 | x6 | x6 | x6 | x6 || E6 | %18
 (GGG G3) | G3 F3 | (EEE E2) x | x6 | x6 | F2 x4 | x6 | E6 | (GGG G3) | G3 F3 | (EEE E2) x | x6 | %30
 x5 | x6 | x5 |] %33
V:3
 [C,C] | [C,C]2 [C,C] [C,G,]2 [C,G,] | [C,C]3 [C,C]2 [E,C] | [F,C]2 [F,C] [F,A,]2 [F,C] | %4
 [C,C]3- [C,C]2 [C,C] | [G,B,]2 [G,B,] G,2 G, | [G,D]3 [G,D]2 [G,C] | %7
 [G,B,]2 [G,B,] [G,B,][G,B,]G, | [C,G,]3- [C,G,]2 [C,C] | [C,C]2 [C,C] [C,G,][C,G,][C,G,] | %10
 [C,C]3 [C,C]3 | [F,C][F,C][F,C] [F,A,][F,A,][F,C] | [C,C]3- [C,C]2 [C,C] | [G,B,]2 [G,B,] G,G,G, | %14
 [G,D]3 [G,D]3 | [G,B,][G,B,][G,B,] [G,D][G,C][G,D] | [C,C]6 || [C,G,]6 | %18
 ([C,C][C,C][C,C] [C,C]3) | [E,C]3 A,2 C | ([C,C][C,C][C,C] [C,C]2) [C,C] | [G,B,]2 [G,B,] G,G,G, | %22
 [G,D]3 [G,D]2 [G,D] | [G,B,]2 [G,B,] [G,,G,]2 [G,,G,] | [C,G,]6 | [C,G,]6 | %26
 ([C,C][C,C][C,C] [C,C]3) | [E,C]3 A,2 C | ([C,C][C,C][C,C] [C,C]2) [C,C] | [G,B,]2 [G,B,] G,G,G, | %30
 [G,D] [G,D]4 | [G,B,][G,B,][G,B,] [G,D][G,C][G,D] | [C,C]3- [C,C]2 |] %33
V:4
 x | x6 | x6 | x6 | x6 | x3 G,2 G, | x6 | x5 G, | x6 | x6 | x6 | x6 | x6 | x3 G,G,G, | x6 | x6 | %16
 x6 || x6 | x6 | x3 F,3 | x6 | x6 | x6 | x6 | x6 | x6 | x6 | x3 F,3 | x6 | x6 | x5 | x6 | x5 |] %33

